!!!COM: Corelli, Arcangelo
!!!OPR: Sonata da camera
!!!OPS: 4
!!!ONM: 10
!!!OMV: 5
!!!OTL: Tempo di Gavotta
!!!OMD: Presto
**kern	**fb	**kern	**kern
*part3	*part3	*part2	*part1
*staff3	*	*staff2	*staff1
*I"Violone & Cembalo	*	*I"Violino II	*I"Violino I
*clefF4	*	*clefG2	*clefG2
*k[]	*	*k[]	*k[]
*G:	*	*G:	*G:
*M2/2	*	*M2/2	*M2/2
*met(c|)	*	*met(c|)	*met(c|)
*MM168	*	*MM168	*MM168
=1	=1	=1	=1
4G	.	4gg	4bb
4d	#	4ff#X	4aa
4G	.	4gg	4bb
4D	#	4ff#	4aa
=2	=2	=2	=2
*e:	*	*e:	*e:
4E	.	4ee	4gg
4B	#	4dd#X	4ff#X
4E	.	4ee	4gg
4BB	#	4dd#	4ff#
=3	=3	=3	=3
4E	.	4ee	4gg
4G	.	4b	4dd
*G:	*	*G:	*G:
4C	.	4cc	4ee
4GG	.	4b	4dd
=4	=4	=4	=4
2C	6	4a	4cc
.	.	4g	4b
2D	#	2f#X	4a
.	.	.	4d
=5	=5	=5	=5
4r	.	4r	2.dd
4D	#	4f#X	.
2E	7	2g	.
.	.	.	4g
=6	=6	=6	=6
4r	.	4r	2.cc
4F#X	5	4a	.
2G	5 4	4d	.
.	3	[4dd	4b
=7	=7	=7	=7
2C	9	4dd]	4e
.	8 6	2cc	4a
4D	7 #	.	4f#X
4GG	.	4b	[4g
=8	=8	=8	=8
4D	5 4	2a	4g]
4DD	#	.	4f#X
2GG	.	2g	2g
=9	=9	=9	=9
2G	.	2dd	4gg
.	.	.	4bb
2F#X	6	2dd	4aa
.	.	.	4dd
=10	=10	=10	=10
2E	7	4dd	4.gg
.	#6\	4cc#X	.
.	.	.	8gg
2D	4	2dd	4gg
.	#	.	4ff#X
=11	=11	=11	=11
*D:	*	*D:	*D:
2G	5	4dd	4b
.	6	2gg	4ee
4A	7 #	.	4cc#X
4D	#	4ff#X	[4dd
=12	=12	=12	=12
4A	5 4	2ee	4dd]
4AA	#	.	4cc#X
2D	#	2dd	2dd
=13	=13	=13	=13
*G:	*	*G:	*G:
4r	.	4r	4gg
4B	6	4dd	4dd
4c	.	2g	4ee
4B	6	.	4dd
=14	=14	=14	=14
4r	.	4r	4ee
4B	6	4dd	4dd
4c	.	2g	4ee
4B	6	.	4dd
=15	=15	=15	=15
4r	.	4r	4gg
4B	6	4dd	4dd
4c	.	2g	4ee
4B	6	.	4g
=16	=16	=16	=16
4A	.	4r	2.cc
4G	4 2	4a	.
4F#X	6 5	4d	.
4G	.	[4dd	4b
=17	=17	=17	=17
2C	9	4dd]	4e
.	8 6	2cc	4a
4D	7 #	.	4f#X
4GG	.	4b	[4g
=18	=18	=18	=18
4D	5 4	2a	4g]
4DD	#	.	4f#X
2GG	.	2g	2g
=19	=19	=19	=19
4r	.	4r	4gg
4B	6	4dd	4dd
4c	.	2g	4ee
4B	6	.	4dd
=20	=20	=20	=20
4r	.	4r	4ee
4B	6	4dd	4dd
4c	.	2g	4ee
4B	6	.	4dd
=21	=21	=21	=21
4r	.	4r	4gg
4B	6	4dd	4dd
4c	.	2g	4ee
4B	6	.	4g
=22	=22	=22	=22
4A	.	4r	2.cc
4G	4 2	4a	.
4F#X	6 5	4d	.
4G	.	[4dd	4b
=23	=23	=23	=23
2C	9	4dd]	4e
.	8 6	2cc	4a
4D	7 #	.	4f#X
4GG	.	4b	[4g
=24	=24	=24	=24
4D	5 4	2a	4g]
4DD	#	.	4f#X
2GG	.	2g	2g
=25:|!|:	=25:|!|:	=25:|!|:	=25:|!|:
*e:	*	*e:	*e:
4G	6	2r	4bb
4A	.	.	4ee
4B	#	4ff#X	4dd#X
4E	.	4gg	4ee
=26	=26	=26	=26
4G	6	2r	4bb
4A	.	.	4ee
4B	#	4ff#X	4dd#X
4E	.	4gg	4ee
=27	=27	=27	=27
*D:	*	*D:	*D:
4F#X	6	2r	4aa
4G	.	.	4ddni
4A	#	4ee	4cc#X
4D	#	4ff#X	4dd
=28	=28	=28	=28
4F#X	6	2r	4aa
4G	.	.	4dd
4A	#	4ee	4cc#X
4D	#	4ff#X	4dd
=29	=29	=29	=29
*b:	*	*b:	*b:
4d	#	4r	4ff#X
4D	6	4ff#X	4b
2E	.	4b	4gg
.	.	4gg	4b
=30	=30	=30	=30
2F#X	#	4a#X	4ff#X
.	.	4ff#X	4aa#X
2G	.	4b	4bb
.	.	[4dd	4b
=31	=31	=31	=31
2D	6 #	4dd]	4ff#X
.	.	8cc#XL	(8eeL
.	.	8bJ	8ddJ)
2E	#6\ #4\	4a#X	4cc#X
.	7 5	[4b	4dd
=32	=32	=32	=32
2F#X	#5\ 4	4b]	2cc#X
.	#	4a#X	.
2BB	.	2b	2b
=33	=33	=33	=33
*a:	*	*a:	*a:
4B	.	4f#X	2.dd
4A	4 2	4b	.
4G#X	6 5	4e	.
4A	.	[4ani	[4ccni
=34	=34	=34	=34
4D	7	4a]	4cc]
4E	#	4g#X	4b
2AA	.	2a	4cc
.	.	.	4a
=35	=35	=35	=35
*G:	*	*G:	*G:
4A	.	4e	2.cc
4G	4 2	4a	.
4F#X	6 5	4d	.
4G	.	4dd	4b
=36	=36	=36	=36
2C	6	4.ee	4.a
.	.	8ee	8g
2D	#	2a	4f#X
.	.	.	4d
=37	=37	=37	=37
4r	.	4r	2.dd
4D	#	4f#X	.
2E	7	2g	.
.	.	.	4g
=38	=38	=38	=38
4r	.	4r	2.cc
4F#X	5	4a	.
2G	5 4	4d	.
.	3	[4dd	4b
=39	=39	=39	=39
2C	9 5	4dd]	4e
.	8 6	2cc	4a
4D	7 #	.	4f#X
4GG	.	4b	[4g
=40	=40	=40	=40
4D	5 4	2a	4g]
4DD	#	.	4f#X
2GG	.	2g	4g
.	.	.	4ee
=41	=41	=41	=41
4r	.	4r	2dd
4F#X	6	4a	.
2E	6	2g	4r
.	.	.	4cc
=42	=42	=42	=42
4r	.	4r	2b
4D	6 #	4f#X	.
2C	6	2e	4r
.	.	.	4a
=43	=43	=43	=43
4r	.	4r	4g
4C	.	2cc	4ee
4D	7 #	.	4f#X
4GG	.	4b	[4g
=44	=44	=44	=44
4D	5 4	2a	4g]
4DD	#	.	4f#X
2GG	.	2g	4g
.	.	.	4ee
=45	=45	=45	=45
4r	.	4r	2dd
4F#X	6	4a	.
2E	6	2g	4r
.	.	.	4cc
=46	=46	=46	=46
4r	.	4r	2b
4D	6 #	4f#X	.
2C	6	2e	4r
.	.	.	4a
=47	=47	=47	=47
4r	.	4r	4g
4C	.	2cc	4ee
4D	7 #	.	4f#X
4GG	.	4b	[4g
=48	=48	=48	=48
4D	5 4	2a	4g]
4DD	#	.	4f#X
2GG	.	2g	2g
=:|!	=:|!	=:|!	=:|!
*-	*-	*-	*-
!!!system-decoration: [{s1,s2},s3]
!!!YEM: CC BY-NC-SA 4.0; CCARH; DCML
!!!RDF**kern: i = editorial accidental